docs/img/icon1/enterpise_solutions.svg

<svg width="287" height="390" viewBox="0 0 287 390" fill="none" xmlns="http://www.w3.org/2000/svg">
<path d="M145.75 266.948L145.773 266.925L145.795 266.9C150.86 261.133 153.35 253.6 153.35 244.4V228.8V227.8H152.35H38.5767C25.4968 227.8 16.059 225.058 10.0574 219.77C4.75122 213.792 2 204.39 2 191.36V37.44C2 24.3629 4.77087 15.3345 10.0562 10.0684C16.0562 4.09014 25.4902 1 38.5767 1H249.423C262.523 1 271.569 4.0955 276.86 10.0257L276.899 10.0696L276.943 10.1086C282.894 15.3794 286 24.3905 286 37.44V232.96C286 285.478 271.786 324.688 243.526 350.785C215.917 376.231 178.951 389 132.518 389H38.5767C25.4969 389 16.0591 386.258 10.0576 380.97C4.75133 374.992 2 365.59 2 352.56V310.96C2 297.883 4.77096 288.854 10.0562 283.588C16.0563 277.61 25.4902 274.52 38.5767 274.52H124.168C133.392 274.52 140.638 272.042 145.75 266.948Z" fill="#F5F6FF" stroke="#232323" stroke-width="2"/>
<path d="M74.2578 95.1445C73.4922 95.1445 72.7305 95.2539 71.9727 95.4727C71.2227 95.6914 70.4883 95.9531 69.7695 96.2578L68.6211 93.3281C69.457 92.9531 70.3477 92.6602 71.293 92.4492C72.2383 92.2305 73.25 92.1211 74.3281 92.1211C75.5859 92.1211 76.707 92.3203 77.6914 92.7188C78.6836 93.1094 79.5195 93.6836 80.1992 94.4414C80.8867 95.1992 81.4062 96.125 81.7578 97.2188C82.1172 98.3125 82.2969 99.5586 82.2969 100.957C82.2969 102.715 82 104.254 81.4062 105.574C80.8203 106.887 79.9141 107.91 78.6875 108.645C77.4609 109.371 75.8945 109.734 73.9883 109.734C73.0039 109.734 72.1172 109.664 71.3281 109.523C70.5469 109.391 69.7461 109.168 68.9258 108.855V105.809C69.8398 106.098 70.6836 106.32 71.457 106.477C72.2383 106.633 73.0117 106.711 73.7773 106.711C74.5117 106.711 75.1602 106.621 75.7227 106.441C76.293 106.254 76.7734 105.98 77.1641 105.621C77.5625 105.254 77.8711 104.801 78.0898 104.262C78.3164 103.715 78.4453 103.078 78.4766 102.352H71.0469V99.375H78.4531C78.4297 98.7031 78.3164 98.1094 78.1133 97.5938C77.9102 97.0703 77.625 96.625 77.2578 96.2578C76.8906 95.8906 76.4531 95.6133 75.9453 95.4258C75.4453 95.2383 74.8828 95.1445 74.2578 95.1445ZM89.1406 96.3984V101.438H94.1328V96.3984H97.707V109.5H94.1328V104.098H89.1406V109.5H85.5664V96.3984H89.1406ZM112.297 99.082H108.008V109.5H104.434V99.082H100.133V96.3984H112.297V99.082ZM120.148 96.1523C121.359 96.1523 122.402 96.3867 123.277 96.8555C124.152 97.3164 124.828 97.9883 125.305 98.8711C125.781 99.7539 126.02 100.832 126.02 102.105V103.84H117.57C117.609 104.848 117.91 105.641 118.473 106.219C119.043 106.789 119.832 107.074 120.84 107.074C121.676 107.074 122.441 106.988 123.137 106.816C123.832 106.645 124.547 106.387 125.281 106.043V108.809C124.633 109.129 123.953 109.363 123.242 109.512C122.539 109.66 121.684 109.734 120.676 109.734C119.363 109.734 118.199 109.492 117.184 109.008C116.176 108.523 115.383 107.785 114.805 106.793C114.234 105.801 113.949 104.551 113.949 103.043C113.949 101.512 114.207 100.238 114.723 99.2227C115.246 98.1992 115.973 97.4336 116.902 96.9258C117.832 96.4102 118.914 96.1523 120.148 96.1523ZM120.172 98.6953C119.477 98.6953 118.898 98.918 118.438 99.3633C117.984 99.8086 117.723 100.508 117.652 101.461H122.668C122.66 100.93 122.562 100.457 122.375 100.043C122.195 99.6289 121.922 99.3008 121.555 99.0586C121.195 98.8164 120.734 98.6953 120.172 98.6953ZM136.215 96.1523C137.691 96.1523 138.883 96.7266 139.789 97.875C140.703 99.0234 141.16 100.707 141.16 102.926C141.16 104.41 140.945 105.66 140.516 106.676C140.086 107.684 139.492 108.445 138.734 108.961C137.977 109.477 137.105 109.734 136.121 109.734C135.488 109.734 134.945 109.656 134.492 109.5C134.039 109.336 133.652 109.129 133.332 108.879C133.012 108.621 132.734 108.348 132.5 108.059H132.312C132.375 108.371 132.422 108.691 132.453 109.02C132.484 109.348 132.5 109.668 132.5 109.98V115.266H128.926V96.3984H131.832L132.336 98.0977H132.5C132.734 97.7461 133.02 97.4219 133.355 97.125C133.691 96.8281 134.094 96.5938 134.562 96.4219C135.039 96.2422 135.59 96.1523 136.215 96.1523ZM135.066 99.0117C134.441 99.0117 133.945 99.1406 133.578 99.3984C133.211 99.6562 132.941 100.043 132.77 100.559C132.605 101.074 132.516 101.727 132.5 102.516V102.902C132.5 103.746 132.578 104.461 132.734 105.047C132.898 105.633 133.168 106.078 133.543 106.383C133.926 106.688 134.449 106.84 135.113 106.84C135.66 106.84 136.109 106.688 136.461 106.383C136.812 106.078 137.074 105.633 137.246 105.047C137.426 104.453 137.516 103.73 137.516 102.879C137.516 101.598 137.316 100.633 136.918 99.9844C136.52 99.3359 135.902 99.0117 135.066 99.0117ZM156.02 96.3984V109.5H152.434V99.082H147.688V109.5H144.113V96.3984H156.02ZM167.059 96.1523C168.535 96.1523 169.727 96.7266 170.633 97.875C171.547 99.0234 172.004 100.707 172.004 102.926C172.004 104.41 171.789 105.66 171.359 106.676C170.93 107.684 170.336 108.445 169.578 108.961C168.82 109.477 167.949 109.734 166.965 109.734C166.332 109.734 165.789 109.656 165.336 109.5C164.883 109.336 164.496 109.129 164.176 108.879C163.855 108.621 163.578 108.348 163.344 108.059H163.156C163.219 108.371 163.266 108.691 163.297 109.02C163.328 109.348 163.344 109.668 163.344 109.98V115.266H159.77V96.3984H162.676L163.18 98.0977H163.344C163.578 97.7461 163.863 97.4219 164.199 97.125C164.535 96.8281 164.938 96.5938 165.406 96.4219C165.883 96.2422 166.434 96.1523 167.059 96.1523ZM165.91 99.0117C165.285 99.0117 164.789 99.1406 164.422 99.3984C164.055 99.6562 163.785 100.043 163.613 100.559C163.449 101.074 163.359 101.727 163.344 102.516V102.902C163.344 103.746 163.422 104.461 163.578 105.047C163.742 105.633 164.012 106.078 164.387 106.383C164.77 106.688 165.293 106.84 165.957 106.84C166.504 106.84 166.953 106.688 167.305 106.383C167.656 106.078 167.918 105.633 168.09 105.047C168.27 104.453 168.359 103.73 168.359 102.879C168.359 101.598 168.16 100.633 167.762 99.9844C167.363 99.3359 166.746 99.0117 165.91 99.0117ZM180.324 96.1289C182.082 96.1289 183.43 96.5117 184.367 97.2773C185.305 98.043 185.773 99.207 185.773 100.77V109.5H183.277L182.586 107.719H182.492C182.117 108.188 181.734 108.57 181.344 108.867C180.953 109.164 180.504 109.383 179.996 109.523C179.488 109.664 178.871 109.734 178.145 109.734C177.371 109.734 176.676 109.586 176.059 109.289C175.449 108.992 174.969 108.539 174.617 107.93C174.266 107.312 174.09 106.531 174.09 105.586C174.09 104.195 174.578 103.172 175.555 102.516C176.531 101.852 177.996 101.484 179.949 101.414L182.223 101.344V100.77C182.223 100.082 182.043 99.5781 181.684 99.2578C181.324 98.9375 180.824 98.7773 180.184 98.7773C179.551 98.7773 178.93 98.8672 178.32 99.0469C177.711 99.2266 177.102 99.4531 176.492 99.7266L175.309 97.3125C176.004 96.9453 176.781 96.6562 177.641 96.4453C178.508 96.2344 179.402 96.1289 180.324 96.1289ZM182.223 103.43L180.84 103.477C179.684 103.508 178.879 103.715 178.426 104.098C177.98 104.48 177.758 104.984 177.758 105.609C177.758 106.156 177.918 106.547 178.238 106.781C178.559 107.008 178.977 107.121 179.492 107.121C180.258 107.121 180.902 106.895 181.426 106.441C181.957 105.988 182.223 105.344 182.223 104.508V103.43ZM192.922 96.3984V101.578C192.922 101.844 192.91 102.18 192.887 102.586C192.871 102.984 192.848 103.391 192.816 103.805C192.785 104.219 192.754 104.59 192.723 104.918C192.691 105.246 192.668 105.469 192.652 105.586L198.699 96.3984H203V109.5H199.543V104.273C199.543 103.844 199.559 103.371 199.59 102.855C199.621 102.332 199.656 101.84 199.695 101.379C199.734 100.918 199.762 100.57 199.777 100.336L193.754 109.5H189.465V96.3984H192.922ZM202.016 90.7617C201.93 91.5898 201.695 92.3203 201.312 92.9531C200.93 93.5859 200.332 94.0781 199.52 94.4297C198.707 94.7812 197.613 94.957 196.238 94.957C194.824 94.957 193.723 94.7891 192.934 94.4531C192.145 94.1094 191.582 93.625 191.246 93C190.91 92.3672 190.707 91.6211 190.637 90.7617H193.836C193.906 91.6445 194.129 92.2305 194.504 92.5195C194.879 92.8008 195.48 92.9414 196.309 92.9414C196.996 92.9414 197.559 92.7852 197.996 92.4727C198.434 92.1602 198.695 91.5898 198.781 90.7617H202.016ZM211.531 96.1523C212.477 96.1523 213.359 96.2773 214.18 96.5273C215 96.7695 215.664 97.1484 216.172 97.6641C216.68 98.1719 216.934 98.8281 216.934 99.6328C216.934 100.422 216.695 101.051 216.219 101.52C215.742 101.98 215.109 102.312 214.32 102.516V102.633C214.875 102.766 215.375 102.945 215.82 103.172C216.273 103.398 216.633 103.711 216.898 104.109C217.164 104.508 217.297 105.031 217.297 105.68C217.297 106.406 217.066 107.078 216.605 107.695C216.145 108.305 215.438 108.797 214.484 109.172C213.539 109.547 212.324 109.734 210.84 109.734C210.137 109.734 209.473 109.703 208.848 109.641C208.23 109.578 207.664 109.488 207.148 109.371C206.633 109.246 206.184 109.098 205.801 108.926V105.973C206.34 106.223 207.004 106.453 207.793 106.664C208.59 106.875 209.438 106.98 210.336 106.98C210.984 106.98 211.57 106.934 212.094 106.84C212.625 106.746 213.043 106.59 213.348 106.371C213.66 106.145 213.816 105.844 213.816 105.469C213.816 105.117 213.68 104.828 213.406 104.602C213.141 104.367 212.73 104.195 212.176 104.086C211.629 103.969 210.934 103.91 210.09 103.91H208.707V101.438H210.02C211.207 101.438 212.125 101.34 212.773 101.145C213.422 100.949 213.746 100.59 213.746 100.066C213.746 99.6445 213.539 99.3281 213.125 99.1172C212.711 98.9062 212.027 98.8008 211.074 98.8008C210.457 98.8008 209.777 98.875 209.035 99.0234C208.293 99.1641 207.598 99.3672 206.949 99.6328L205.895 97.1367C206.652 96.8477 207.473 96.6133 208.355 96.4336C209.246 96.2461 210.305 96.1523 211.531 96.1523ZM95.0469 129.152C96.5234 129.152 97.7148 129.727 98.6211 130.875C99.5352 132.023 99.9922 133.707 99.9922 135.926C99.9922 137.41 99.7773 138.66 99.3477 139.676C98.918 140.684 98.3242 141.445 97.5664 141.961C96.8086 142.477 95.9375 142.734 94.9531 142.734C94.3203 142.734 93.7773 142.656 93.3242 142.5C92.8711 142.336 92.4844 142.129 92.1641 141.879C91.8438 141.621 91.5664 141.348 91.332 141.059H91.1445C91.207 141.371 91.2539 141.691 91.2852 142.02C91.3164 142.348 91.332 142.668 91.332 142.98V148.266H87.7578V129.398H90.6641L91.168 131.098H91.332C91.5664 130.746 91.8516 130.422 92.1875 130.125C92.5234 129.828 92.9258 129.594 93.3945 129.422C93.8711 129.242 94.4219 129.152 95.0469 129.152ZM93.8984 132.012C93.2734 132.012 92.7773 132.141 92.4102 132.398C92.043 132.656 91.7734 133.043 91.6016 133.559C91.4375 134.074 91.3477 134.727 91.332 135.516V135.902C91.332 136.746 91.4102 137.461 91.5664 138.047C91.7305 138.633 92 139.078 92.375 139.383C92.7578 139.688 93.2812 139.84 93.9453 139.84C94.4922 139.84 94.9414 139.688 95.293 139.383C95.6445 139.078 95.9062 138.633 96.0781 138.047C96.2578 137.453 96.3477 136.73 96.3477 135.879C96.3477 134.598 96.1484 133.633 95.75 132.984C95.3516 132.336 94.7344 132.012 93.8984 132.012ZM108.348 129.152C109.559 129.152 110.602 129.387 111.477 129.855C112.352 130.316 113.027 130.988 113.504 131.871C113.98 132.754 114.219 133.832 114.219 135.105V136.84H105.77C105.809 137.848 106.109 138.641 106.672 139.219C107.242 139.789 108.031 140.074 109.039 140.074C109.875 140.074 110.641 139.988 111.336 139.816C112.031 139.645 112.746 139.387 113.48 139.043V141.809C112.832 142.129 112.152 142.363 111.441 142.512C110.738 142.66 109.883 142.734 108.875 142.734C107.562 142.734 106.398 142.492 105.383 142.008C104.375 141.523 103.582 140.785 103.004 139.793C102.434 138.801 102.148 137.551 102.148 136.043C102.148 134.512 102.406 133.238 102.922 132.223C103.445 131.199 104.172 130.434 105.102 129.926C106.031 129.41 107.113 129.152 108.348 129.152ZM108.371 131.695C107.676 131.695 107.098 131.918 106.637 132.363C106.184 132.809 105.922 133.508 105.852 134.461H110.867C110.859 133.93 110.762 133.457 110.574 133.043C110.395 132.629 110.121 132.301 109.754 132.059C109.395 131.816 108.934 131.695 108.371 131.695ZM136.637 129.398V142.5H117.125V129.398H120.699V139.816H125.094V129.398H128.668V139.816H133.062V129.398H136.637ZM145.801 129.152C147.012 129.152 148.055 129.387 148.93 129.855C149.805 130.316 150.48 130.988 150.957 131.871C151.434 132.754 151.672 133.832 151.672 135.105V136.84H143.223C143.262 137.848 143.562 138.641 144.125 139.219C144.695 139.789 145.484 140.074 146.492 140.074C147.328 140.074 148.094 139.988 148.789 139.816C149.484 139.645 150.199 139.387 150.934 139.043V141.809C150.285 142.129 149.605 142.363 148.895 142.512C148.191 142.66 147.336 142.734 146.328 142.734C145.016 142.734 143.852 142.492 142.836 142.008C141.828 141.523 141.035 140.785 140.457 139.793C139.887 138.801 139.602 137.551 139.602 136.043C139.602 134.512 139.859 133.238 140.375 132.223C140.898 131.199 141.625 130.434 142.555 129.926C143.484 129.41 144.566 129.152 145.801 129.152ZM145.824 131.695C145.129 131.695 144.551 131.918 144.09 132.363C143.637 132.809 143.375 133.508 143.305 134.461H148.32C148.312 133.93 148.215 133.457 148.027 133.043C147.848 132.629 147.574 132.301 147.207 132.059C146.848 131.816 146.387 131.695 145.824 131.695ZM158.152 129.398V134.438H163.145V129.398H166.719V142.5H163.145V137.098H158.152V142.5H154.578V129.398H158.152ZM173.926 129.398V134.578C173.926 134.844 173.914 135.18 173.891 135.586C173.875 135.984 173.852 136.391 173.82 136.805C173.789 137.219 173.758 137.59 173.727 137.918C173.695 138.246 173.672 138.469 173.656 138.586L179.703 129.398H184.004V142.5H180.547V137.273C180.547 136.844 180.562 136.371 180.594 135.855C180.625 135.332 180.66 134.84 180.699 134.379C180.738 133.918 180.766 133.57 180.781 133.336L174.758 142.5H170.469V129.398H173.926ZM189.758 142.5H185.891L189.418 137.32C188.973 137.133 188.555 136.875 188.164 136.547C187.773 136.211 187.457 135.789 187.215 135.281C186.973 134.773 186.852 134.164 186.852 133.453C186.852 132.148 187.344 131.148 188.328 130.453C189.32 129.75 190.598 129.398 192.16 129.398H198.254V142.5H194.68V137.625H192.711L189.758 142.5ZM190.355 133.477C190.355 134.023 190.57 134.453 191 134.766C191.438 135.07 192 135.223 192.688 135.223H194.68V131.918H192.23C191.59 131.918 191.117 132.074 190.812 132.387C190.508 132.691 190.355 133.055 190.355 133.477Z" fill="#232323"/>
</svg>

<svg width="287" height="390" fill="none" xmlns="http://www.w3.org/2000/svg"><path d="M145.75 266.948l.023-.023.022-.025c5.065-5.767 7.555-13.3 7.555-22.5v-16.6H38.577c-13.08 0-22.518-2.742-28.52-8.03C4.751 213.792 2 204.39 2 191.36V37.44c0-13.077 2.77-22.105 8.056-27.372C16.056 4.09 25.49 1 38.576 1h210.847c13.1 0 22.146 3.096 27.437 9.026l.039.044.044.039C282.894 15.379 286 24.39 286 37.44v195.52c0 52.518-14.214 91.728-42.474 117.825C215.917 376.231 178.951 389 132.518 389H38.577c-13.08 0-22.518-2.742-28.52-8.03C4.752 374.992 2 365.59 2 352.56v-41.6c0-13.077 2.771-22.106 8.056-27.372 6-5.978 15.434-9.068 28.52-9.068h85.592c9.224 0 16.47-2.478 21.582-7.572z" fill="#F5F6FF" stroke="#232323" stroke-width="2"/><path d="M74.258 95.144c-.766 0-1.527.11-2.285.329-.75.218-1.485.48-2.204.785l-1.148-2.93a13.915 13.915 0 012.672-.879 13.441 13.441 0 013.035-.328c1.258 0 2.379.2 3.363.598a6.52 6.52 0 012.508 1.722c.688.758 1.207 1.684 1.559 2.778.36 1.094.539 2.34.539 3.738 0 1.758-.297 3.297-.89 4.617a6.66 6.66 0 01-2.72 3.071c-1.226.726-2.793 1.089-4.699 1.089-.984 0-1.87-.07-2.66-.211a12.666 12.666 0 01-2.402-.668v-3.046a24.88 24.88 0 002.531.668c.781.156 1.555.234 2.32.234.735 0 1.383-.09 1.946-.27a3.887 3.887 0 001.441-.82c.398-.367.707-.82.926-1.359.226-.547.355-1.184.387-1.91h-7.43v-2.977h7.406c-.023-.672-.137-1.266-.34-1.781a3.81 3.81 0 00-.855-1.336 3.587 3.587 0 00-1.313-.832 4.778 4.778 0 00-1.687-.282zm14.883 1.254v5.04h4.992v-5.04h3.574V109.5h-3.574v-5.402H89.14v5.402h-3.575V96.398h3.575zm23.156 2.684h-4.289V109.5h-3.574V99.082h-4.301v-2.684h12.164v2.684zm7.851-2.93c1.211 0 2.254.235 3.129.704a4.809 4.809 0 012.028 2.015c.476.883.715 1.961.715 3.234v1.735h-8.45c.039 1.008.34 1.801.903 2.379.57.57 1.359.855 2.367.855.836 0 1.601-.086 2.297-.258.695-.171 1.41-.429 2.144-.773v2.766a8.545 8.545 0 01-2.039.703c-.703.148-1.558.222-2.566.222-1.313 0-2.477-.242-3.492-.726a5.428 5.428 0 01-2.379-2.215c-.571-.992-.856-2.242-.856-3.75 0-1.531.258-2.805.774-3.82.523-1.024 1.25-1.79 2.179-2.297.93-.516 2.012-.774 3.246-.774zm.024 2.543c-.695 0-1.274.223-1.734.668-.454.446-.715 1.145-.786 2.098h5.016a3.544 3.544 0 00-.293-1.418 2.204 2.204 0 00-.82-.984c-.36-.243-.821-.364-1.383-.364zm16.043-2.543c1.476 0 2.668.575 3.574 1.723.914 1.148 1.371 2.832 1.371 5.051 0 1.484-.215 2.734-.644 3.75-.43 1.008-1.024 1.769-1.782 2.285-.757.516-1.629.773-2.613.773-.633 0-1.176-.078-1.629-.234a4.182 4.182 0 01-1.16-.621 5.53 5.53 0 01-.832-.82h-.188a10.207 10.207 0 01.188 1.921v5.286h-3.574V96.398h2.906l.504 1.7h.164c.234-.352.52-.676.855-.973a3.758 3.758 0 011.207-.703c.477-.18 1.028-.27 1.653-.27zm-1.149 2.86c-.625 0-1.121.129-1.488.386-.367.258-.637.645-.808 1.161-.165.515-.254 1.168-.27 1.957v.386c0 .844.078 1.559.234 2.145.164.586.434 1.031.809 1.336.383.305.906.457 1.57.457.547 0 .996-.152 1.348-.457.351-.305.613-.75.785-1.336.18-.594.27-1.317.27-2.168 0-1.281-.2-2.246-.598-2.895-.398-.648-1.016-.972-1.852-.972zm20.954-2.614V109.5h-3.586V99.082h-4.746V109.5h-3.575V96.398h11.907zm11.039-.246c1.476 0 2.668.575 3.574 1.723.914 1.148 1.371 2.832 1.371 5.051 0 1.484-.215 2.734-.645 3.75-.429 1.008-1.023 1.769-1.781 2.285-.758.516-1.629.773-2.613.773-.633 0-1.176-.078-1.629-.234a4.182 4.182 0 01-1.16-.621 5.483 5.483 0 01-.832-.82h-.188a10.207 10.207 0 01.188 1.921v5.286h-3.574V96.398h2.906l.504 1.7h.164a4.98 4.98 0 01.855-.973 3.758 3.758 0 011.207-.703c.477-.18 1.028-.27 1.653-.27zm-1.149 2.86c-.625 0-1.121.129-1.488.386-.367.258-.637.645-.809 1.161-.164.515-.254 1.168-.269 1.957v.386c0 .844.078 1.559.234 2.145.164.586.434 1.031.809 1.336.383.305.906.457 1.57.457.547 0 .996-.152 1.348-.457.351-.305.613-.75.785-1.336.18-.594.269-1.317.269-2.168 0-1.281-.199-2.246-.597-2.895-.399-.648-1.016-.972-1.852-.972zm14.414-2.883c1.758 0 3.106.383 4.043 1.148.938.766 1.406 1.93 1.406 3.493v8.73h-2.496l-.691-1.781h-.094a6.652 6.652 0 01-1.148 1.148 3.93 3.93 0 01-1.348.656c-.508.141-1.125.211-1.851.211-.774 0-1.469-.148-2.086-.445a3.315 3.315 0 01-1.442-1.359c-.351-.618-.527-1.399-.527-2.344 0-1.391.488-2.414 1.465-3.07.976-.664 2.441-1.032 4.394-1.102l2.274-.07v-.574c0-.688-.18-1.192-.539-1.512-.36-.32-.86-.48-1.5-.48-.633 0-1.254.09-1.864.269-.609.18-1.218.406-1.828.68l-1.183-2.415a10.143 10.143 0 012.332-.867c.867-.21 1.761-.316 2.683-.316zm1.899 7.301l-1.383.047c-1.156.031-1.961.238-2.414.621-.446.382-.668.886-.668 1.511 0 .547.16.938.48 1.172.321.227.739.34 1.254.34.766 0 1.41-.226 1.934-.68.531-.453.797-1.097.797-1.933v-1.078zm10.699-7.032v5.18c0 .266-.012.602-.035 1.008-.016.398-.039.805-.071 1.219-.031.414-.062.785-.093 1.113-.032.328-.055.551-.071.668l6.047-9.188H203V109.5h-3.457v-5.227c0-.429.016-.902.047-1.418.031-.523.066-1.015.105-1.476.039-.461.067-.809.082-1.043l-6.023 9.164h-4.289V96.398h3.457zm9.094-5.636c-.086.828-.321 1.558-.704 2.191-.382.633-.98 1.125-1.792 1.477-.813.351-1.907.527-3.282.527-1.414 0-2.515-.168-3.304-.504-.789-.344-1.352-.828-1.688-1.453-.336-.633-.539-1.379-.609-2.238h3.199c.07.882.293 1.469.668 1.757.375.282.976.422 1.805.422.687 0 1.25-.156 1.687-.468.438-.313.699-.883.785-1.711h3.235zm9.515 5.39c.946 0 1.828.125 2.649.375.82.242 1.484.621 1.992 1.137.508.508.762 1.164.762 1.969 0 .789-.239 1.418-.715 1.887-.477.46-1.11.792-1.899.996v.117a6.755 6.755 0 011.5.539c.453.226.813.539 1.078.937.266.399.399.922.399 1.571 0 .726-.231 1.398-.692 2.015-.46.61-1.167 1.102-2.121 1.477-.945.375-2.16.562-3.644.562-.703 0-1.367-.031-1.992-.093a14.235 14.235 0 01-1.7-.27 7.787 7.787 0 01-1.347-.445v-2.953c.539.25 1.203.48 1.992.691a9.904 9.904 0 002.543.316c.648 0 1.234-.046 1.758-.14.531-.094.949-.25 1.254-.469a1.06 1.06 0 00.468-.902c0-.352-.136-.641-.41-.867-.265-.235-.676-.407-1.23-.516-.547-.117-1.242-.176-2.086-.176h-1.383v-2.472h1.313c1.187 0 2.105-.098 2.753-.293.649-.196.973-.555.973-1.079 0-.422-.207-.738-.621-.949-.414-.21-1.098-.316-2.051-.316-.617 0-1.297.074-2.039.222-.742.141-1.437.344-2.086.61l-1.054-2.496a15.663 15.663 0 012.46-.703c.891-.188 1.95-.282 3.176-.282zm-116.484 33c1.476 0 2.668.575 3.574 1.723.914 1.148 1.371 2.832 1.371 5.051 0 1.484-.215 2.734-.644 3.75-.43 1.008-1.024 1.769-1.782 2.285-.757.516-1.629.773-2.613.773-.633 0-1.176-.078-1.629-.234a4.186 4.186 0 01-1.16-.621 5.535 5.535 0 01-.832-.82h-.188a10.138 10.138 0 01.188 1.921v5.286h-3.574v-18.868h2.906l.504 1.7h.164c.234-.352.52-.676.856-.973a3.75 3.75 0 011.206-.703c.477-.18 1.028-.27 1.653-.27zm-1.149 2.86c-.625 0-1.12.129-1.488.386-.367.258-.637.645-.808 1.161-.165.515-.254 1.168-.27 1.957v.386c0 .844.078 1.559.234 2.145.165.586.434 1.031.809 1.336.383.305.906.457 1.57.457.547 0 .996-.152 1.348-.457.351-.305.613-.75.785-1.336.18-.594.27-1.317.27-2.168 0-1.281-.2-2.246-.598-2.895-.398-.648-1.016-.972-1.852-.972zm14.45-2.86c1.211 0 2.254.235 3.129.703a4.807 4.807 0 012.027 2.016c.476.883.715 1.961.715 3.234v1.735h-8.449c.039 1.008.339 1.801.902 2.379.57.57 1.359.855 2.367.855.836 0 1.602-.086 2.297-.258.695-.171 1.41-.429 2.144-.773v2.766a8.545 8.545 0 01-2.039.703c-.703.148-1.558.222-2.566.222-1.313 0-2.477-.242-3.492-.726a5.428 5.428 0 01-2.379-2.215c-.57-.992-.856-2.242-.856-3.75 0-1.531.258-2.805.774-3.82.523-1.024 1.25-1.789 2.18-2.297.929-.516 2.011-.774 3.246-.774zm.023 2.543c-.695 0-1.273.223-1.734.668-.453.446-.715 1.145-.785 2.098h5.015c-.008-.531-.105-1.004-.293-1.418a2.196 2.196 0 00-.82-.984c-.359-.243-.82-.364-1.383-.364zm28.266-2.297V142.5h-19.512v-13.102h3.574v10.418h4.395v-10.418h3.574v10.418h4.394v-10.418h3.575zm9.164-.246c1.211 0 2.254.235 3.129.703a4.807 4.807 0 012.027 2.016c.477.883.715 1.961.715 3.234v1.735h-8.449c.039 1.008.339 1.801.902 2.379.57.57 1.359.855 2.367.855.836 0 1.602-.086 2.297-.258.695-.171 1.41-.429 2.145-.773v2.766a8.575 8.575 0 01-2.039.703c-.704.148-1.559.222-2.567.222-1.312 0-2.476-.242-3.492-.726a5.428 5.428 0 01-2.379-2.215c-.57-.992-.855-2.242-.855-3.75 0-1.531.257-2.805.773-3.82.523-1.024 1.25-1.789 2.18-2.297.929-.516 2.011-.774 3.246-.774zm.023 2.543c-.695 0-1.273.223-1.734.668-.453.446-.715 1.145-.785 2.098h5.015c-.008-.531-.105-1.004-.293-1.418a2.196 2.196 0 00-.82-.984c-.359-.243-.82-.364-1.383-.364zm12.328-2.297v5.04h4.993v-5.04h3.574V142.5h-3.574v-5.402h-4.993v5.402h-3.574v-13.102h3.574zm15.774 0v5.18c0 .266-.012.602-.035 1.008-.016.398-.039.805-.071 1.219-.031.414-.062.785-.093 1.113-.032.328-.055.551-.071.668l6.047-9.188h4.301V142.5h-3.457v-5.227c0-.429.015-.902.047-1.418.031-.523.066-1.015.105-1.476.039-.461.067-.809.082-1.043l-6.023 9.164h-4.289v-13.102h3.457zm15.832 13.102h-3.867l3.527-5.18a4.902 4.902 0 01-1.254-.773 3.792 3.792 0 01-.949-1.266c-.242-.508-.363-1.117-.363-1.828 0-1.305.492-2.305 1.476-3 .992-.703 2.27-1.055 3.832-1.055h6.094V142.5h-3.574v-4.875h-1.969l-2.953 4.875zm.597-9.023c0 .546.215.976.645 1.289.438.304 1 .457 1.688.457h1.992v-3.305h-2.45c-.64 0-1.113.156-1.418.469a1.49 1.49 0 00-.457 1.09z" fill="#232323"/></svg>
